assets/images/header/tg.svg

<svg width="56" height="56" viewBox="0 0 56 56" fill="none" xmlns="http://www.w3.org/2000/svg">
<circle cx="27.9793" cy="27.9793" r="27.9793" fill="#40B3E0"/>
<path d="M37.9577 18.4915L34.2019 37.4271C34.2019 37.4271 33.6767 38.7403 32.2323 38.11L23.5655 31.4655L20.4141 29.9423L15.1091 28.1563C15.1091 28.1563 14.295 27.8675 14.2161 27.2372C14.1373 26.6069 15.1354 26.2656 15.1354 26.2656L36.2241 17.9928C36.2241 17.9928 37.9575 17.2312 37.9575 18.4918" fill="white"/>
<path d="M22.8995 37.2144C22.8995 37.2144 22.6465 37.1907 22.3311 36.1926C22.0162 35.1946 20.4141 29.9422 20.4141 29.9422L33.1515 21.8533C33.1515 21.8533 33.8869 21.4069 33.8606 21.8533C33.8606 21.8533 33.9919 21.9322 33.5978 22.2998C33.204 22.6676 23.5919 31.3079 23.5919 31.3079" fill="#D2E5F1"/>
<path d="M26.8889 34.0129L23.4611 37.1383C23.4611 37.1383 23.193 37.3417 22.8999 37.2142L23.5563 31.4088" fill="#B5CFE4"/>
</svg>

<svg width="56" height="56" fill="none" xmlns="http://www.w3.org/2000/svg"><circle cx="27.979" cy="27.979" r="27.979" fill="#40B3E0"/><path d="M37.958 18.491l-3.756 18.936s-.525 1.313-1.97.683l-8.666-6.645-3.152-1.523-5.305-1.786s-.814-.288-.893-.919c-.079-.63.92-.971.92-.971l21.088-8.273s1.734-.762 1.734.499" fill="#fff"/><path d="M22.9 37.214s-.253-.023-.569-1.021c-.315-.998-1.917-6.25-1.917-6.25l12.737-8.09s.736-.446.71 0c0 0 .13.08-.263.447-.394.368-10.006 9.008-10.006 9.008" fill="#D2E5F1"/><path d="M26.889 34.013l-3.428 3.125s-.268.204-.561.076l.656-5.805" fill="#B5CFE4"/></svg>
